source/images/icons/shortcut-telegram.svg

<svg width="23" height="20" viewBox="0 0 23 20"  xmlns="http://www.w3.org/2000/svg">
<path d="M20.2673 0.844884C20.2673 0.844884 22.2424 0.0187722 22.0764 2.02368C22.0215 2.84979 21.5277 5.73642 21.1437 8.86135L19.8269 18.1154C19.8269 18.1154 19.7172 19.4705 18.7296 19.7072C17.7421 19.9424 16.2607 18.8811 15.9864 18.646C15.7669 18.4681 11.8715 15.815 10.4999 14.5186C10.1144 14.1659 9.67693 13.459 10.5548 12.6329L16.3156 6.73887C16.9739 6.03191 17.6323 4.38128 14.8891 6.3846L7.20801 11.9847C7.20801 11.9847 6.32869 12.5741 4.68275 12.0435L1.11654 10.8647C1.11654 10.8647 -0.200215 9.98136 2.05072 9.09647C7.5372 6.32582 14.2871 3.49639 20.2673 0.844884Z" />
</svg>

<svg viewBox="0 0 23 20" xmlns="http://www.w3.org/2000/svg"><path d="M20.27.84s1.97-.82 1.8 1.18c-.05.83-.54 3.72-.93 6.84l-1.31 9.26s-.11 1.35-1.1 1.59c-.99.23-2.47-.83-2.74-1.06-.22-.18-4.12-2.83-5.49-4.13-.39-.35-.82-1.06.05-1.89l5.77-5.9c.65-.7 1.31-2.35-1.43-.35l-7.68 5.6s-.88.6-2.53.06l-3.56-1.18s-1.32-.88.93-1.76c5.49-2.77 12.24-5.6 18.22-8.26Z"/></svg>
